X:1
T:What Sweeter Music
T:What Sweeter Music
C:Johannes Brahms
Z:All Rights Reserved
L:1/8
M:4/4
K:F
V:1 treble nm="Piano" snm="Pno."
%%MIDI program 0
V:1
 z4 z2 C2 |"F" C3 F"C" E2"F" F2 |"C7" GABc"F" A2"A7" G2 |"Dm" F3 E D2 A2 |"G" G3 D"C" E2"C7" C2 | %5
w: What|sweet- er mu- sic|can _ we _ bring _|Than a car- ol|for to sing. The|
w: O,|dark and dull night,|fly _ hence a- way And|give the hon- or|of this day, That|
"F" C3 F"C" E2"F" F2 |"C7" (GAB)c"F" A2"A7" G2 |"Dm" F3 E D2"Dm7" A2 |"E" ^G3 E"A" A2 A,2 | %9
w: birth of this our|heav'n- * ly _ King. A-|wake the voice! A-|wake the string! We|
w: sees De- cem- ber|turn'd _ to _ May; If|we may ask the|rea- son, say: We|
"D7" A3 ^F D2 F2 | (E^F)"G"(GA)"D7" F2 A,2 | A3 ^F D2 F2 |"Gm" (GA)(Bc)"D" A2 ^F2 | %13
w: see Him come and|know _ Him _ ours, Who|with His sun- shine|and _ His _ show'rs Turns|
w: see Him come and|know _ Him _ ours, Who|with His sun- shine|and _ His _ show'rs Turns|
"Gm" (GA)(Bc)"Bb" d2"Db" _d2 |"F" c3"C7" E"F" !fermata!F4 |] %15
w: all _ the _ pa- tient|ground to flow'rs.|
w: all _ the _ pa- tient|ground to flow'rs.|

